resources/haticons/SVG/minus-circle.svg

<!-- Generated by IcoMoon.io -->
<svg version="1.1" xmlns="http://www.w3.org/2000/svg" width="24" height="24" viewBox="0 0 24 24">
<title>minus-circle</title>
<path d="M17.456 11.295h-10.605c-0.413 0-0.75 0.338-0.75 0.75s0.337 0.75 0.75 0.75h10.605c0.413 0 0.75-0.337 0.75-0.75s-0.334-0.75-0.75-0.75zM12 0c-6.619 0-12 5.381-12 12s5.381 12 12 12 12-5.381 12-12-5.381-12-12-12zM12 22.5c-5.79 0-10.5-4.71-10.5-10.5s4.71-10.5 10.5-10.5 10.5 4.71 10.5 10.5-4.71 10.5-10.5 10.5z"></path>
</svg>

<svg xmlns="http://www.w3.org/2000/svg" width="24" height="24"><path d="M17.456 11.295H6.851c-.413 0-.75.338-.75.75s.337.75.75.75h10.605a.75.75 0 1 0 0-1.5zM12 0C5.381 0 0 5.381 0 12s5.381 12 12 12 12-5.381 12-12S18.619 0 12 0zm0 22.5C6.21 22.5 1.5 17.79 1.5 12S6.21 1.5 12 1.5 22.5 6.21 22.5 12 17.79 22.5 12 22.5z"/></svg>
